icon-themes/breeze_svg/cmd/lc_wordcountdialog.svg

<svg xmlns="http://www.w3.org/2000/svg" viewBox="0 0 24 24">
 <path 
     style="fill:#4d4d4d" 
     d="M 5 4 L 5 5 L 6 5 L 6 9 L 5 9 L 5 10 L 8 10 L 8 9 L 7 9 L 7 5 L 8 5 L 8 4 L 7 4 L 6 4 L 5 4 z M 9.5 8 L 9.5 9 L 10.5 9 L 10.5 13 L 9.5 13 L 9.5 14 L 14.5 14 L 14.5 13 L 13.5 13 L 13.5 9 L 14.5 9 L 14.5 8 L 11.5 8 L 10.5 8 L 9.5 8 z M 11.5 9 L 12.5 9 L 12.5 13 L 11.5 13 L 11.5 9 z M 16 14 L 16 15 L 15 15 L 15 16 L 16 16 L 16 18 L 15 18 L 15 19 L 16 19 L 16 20 L 17 20 L 17 19 L 19 19 L 19 20 L 20 20 L 20 19 L 21 19 L 21 18 L 20 18 L 20 16 L 21 16 L 21 15 L 20 15 L 20 14 L 19 14 L 19 15 L 17 15 L 17 14 L 16 14 z M 17 16 L 19 16 L 19 18 L 17 18 L 17 16 z "
     />
 </svg>

<svg viewBox="0 0 24 24" xmlns="http://www.w3.org/2000/svg"><path d="m5 4v1h1v4h-1v1h3v-1h-1v-4h1v-1h-1-1zm4.5 4v1h1v4h-1v1h5v-1h-1v-4h1v-1h-3-1zm2 1h1v4h-1zm4.5 5v1h-1v1h1v2h-1v1h1v1h1v-1h2v1h1v-1h1v-1h-1v-2h1v-1h-1v-1h-1v1h-2v-1zm1 2h2v2h-2z" fill="#4d4d4d"/></svg>
